src/assets/obucheniye/icons/phone.svg

<svg fill="none" height="25" viewBox="0 0 25 25" width="25" xmlns="http://www.w3.org/2000/svg"><path d="m20.5269 15.2688c-.8821-.8708-1.9833-.8708-2.8598 0-.6686.663-1.3372 1.326-1.9945 2.0002-.1798.1854-.3315.2247-.5507.1011-.4326-.2359-.8933-.427-1.309-.6854-1.9384-1.2192-3.5621-2.7868-5.00047-4.551-.71354-.8764-1.34842-1.8147-1.79228-2.87099-.0899-.2135-.07304-.35396.10113-.52813.6686-.64612 1.32034-1.3091 1.97769-1.97208.91583-.92142.91583-2.00016-.00561-2.92721-.52252-.52813-1.04503-1.04503-1.56755-1.57316-.53937-.53937-1.07312-1.08436-1.61811-1.618114-.8821-.859622-1.98331-.859622-2.85979.005618-.67421.662976-1.32034 1.342806-2.00579 1.994546-.63488.60118-.9551317 1.33719-1.0225531 2.19681-.1067504 1.399.2359751 2.71933.7191611 4.00596.988842 2.66315 2.494592 5.02855 4.320582 7.19725 2.4665 2.9328 5.41059 5.2532 8.85469 6.9275 1.5507.7529 3.1576 1.3316 4.9049 1.4271 1.2023.0674 2.2474-.236 3.0845-1.1743.5731-.6405 1.2192-1.2248 1.826-1.8372.899-.9102.9046-2.0114.0112-2.9103-1.0675-1.0732-2.1406-2.1407-3.2137-3.2082z" fill="#000"/></svg>

<svg width="25" height="25" viewBox="0 0 25 25" fill="none" xmlns="http://www.w3.org/2000/svg">
<path d="M20.5269 15.2688C19.6448 14.398 18.5436 14.398 17.6671 15.2688C16.9985 15.9318 16.3299 16.5948 15.6726 17.269C15.4928 17.4544 15.3411 17.4937 15.1219 17.3701C14.6893 17.1342 14.2286 16.9431 13.8129 16.6847C11.8745 15.4655 10.2508 13.8979 8.81243 12.1337C8.09889 11.2573 7.46401 10.319 7.02015 9.26271C6.93025 9.04921 6.94711 8.90875 7.12128 8.73458C7.78988 8.08846 8.44162 7.42548 9.09897 6.7625C10.0148 5.84108 10.0148 4.76234 9.09336 3.83529C8.57084 3.30716 8.04833 2.79026 7.52581 2.26213C6.98644 1.72276 6.45269 1.17777 5.9077 0.644016C5.0256 -0.215606 3.92439 -0.215606 3.04791 0.649634C2.3737 1.31261 1.72757 1.99244 1.04212 2.64418C0.40724 3.24536 0.0869883 3.98137 0.0195669 4.84099C-0.0871835 6.23999 0.255542 7.56032 0.738728 8.84695C1.72757 11.5101 3.23332 13.8755 5.05931 16.0442C7.52581 18.977 10.4699 21.2974 13.914 22.9717C15.4647 23.7246 17.0716 24.3033 18.8189 24.3988C20.0212 24.4662 21.0663 24.1628 21.9034 23.2245C22.4765 22.584 23.1226 21.9997 23.7294 21.3873C24.6284 20.4771 24.634 19.3759 23.7406 18.477C22.6731 17.4038 21.6 16.3363 20.5269 15.2688Z" fill="black"/>
</svg>
